X:1
T:Fennario
M:2/2
L:1/8
K:F
 C| F2 F2 D2 C3/2 C/2|
M:2/4
 D3 F|
M:2/2
 C6 z F| A2 c2 c2 AG| Ac c4- cc| dd cc A3 F/2F/2|
M:2/4
 cc AF|
M:2/2
 D6 z F| F2 FF D3 C/2C/2|
M:2/4
 D3 F|
M:2/2
 C6 z||
